X:1
T:Derry (Dykes), 88.86
T:John Bacchus Dykes, 1875
T:Derry (Dykes), 88.86
T:Public Domain
C:John Bacchus Dykes, 1875
Z:Public Domain
%%score ( 1 2 ) ( 3 4 )
L:1/8
M:4/4
K:G
V:1 treble 
V:2 treble 
V:3 bass 
V:4 bass 
V:1
 [DB]2 | [DB]2 [DA]2 [B,G]2 [CE]2 | D2 [^CG]2 [DA]2 [=FA]2 | [EA]2 [EB]2 [Ec]2 (BA) | %4
 [E^G]3 [DG] [CA]2 [^CA]2 | [Dd]3 [Dc] [DB]2 [DA]2 | [DG]2 [^CA]2 [DF]2 [A,E]2 | %7
 D2 [DG]2 [CA]3 [B,G] | [B,G]6 |] %9
V:2
 x2 | x8 | D2 x6 | x6 =F2 | x8 | x8 | x8 | D2 x6 | x6 |] %9
V:3
 [G,B,]2 | [G,B,]2 [D,F,]2 [E,G,]2 [C,G,]2 | [G,B,]2 (A,G,) [D,F,]2 [D,A,]2 | %3
 [E,C]2 [E,^G,]2 (A,C)(DC) | [E,B,]3 [E,B,] [A,,A,]2 (A,F,) | [F,A,]3 [F,A,] G,2 [F,A,]2 | %6
 [E,B,]2 [A,,A,]2 [D,A,]2 [C,F,]2 | [B,,G,]2 [G,,B,]2 [D,F,]3 [G,,D,] | [G,,D,]6 |] %9
V:4
 x2 | x8 | x2 E,2 x4 | x4 A,2 D,2 | x6 A,2 | x4 G,2 x2 | x8 | x8 | x6 |] %9

